src/assets/icons/ico-message.svg

<?xml version="1.0" encoding="UTF-8"?>
<svg width="16px" height="16px" viewBox="0 0 16 16" version="1.1" xmlns="http://www.w3.org/2000/svg" xmlns:xlink="http://www.w3.org/1999/xlink">
    <!-- Generator: Sketch 49.3 (51167) - http://www.bohemiancoding.com/sketch -->
    <title>Group 23</title>
    <desc>Created with Sketch.</desc>
    <defs></defs>
    <g id="Components" stroke="none" stroke-width="1" fill="none" fill-rule="evenodd">
        <g id="Icons" transform="translate(-149.000000, -3141.000000)" stroke="#B4C2C8">
            <g id="Group-22" transform="translate(150.000000, 3142.000000)">
                <g id="Group-23">
                    <path d="M7.23099295,0 C10.9634215,0 14,3.0165574 14,6.72489536 C14,8.27388228 13.4565793,9.7860503 12.4704873,10.9824055 L12.4088892,11.0581176 L12.3812223,11.0871578 L12.3676498,11.101678 L12.3545994,11.1161981 C12.025206,11.4957958 11.6556173,11.8375375 11.2567956,12.1310516 L11.241135,12.1424603 L11.2259965,12.1543875 C9.62340132,13.4306034 7.58439912,14 4.61620493,14 C2.87997315,14 1.71587308,13.9201393 0,13.4772753 C0.743353593,12.5521354 1.07744509,11.6124755 1.07744509,10.4669408 C1.07744509,10.0204467 1.01793505,9.56824832 0.899958984,9.12382857 L0.887430553,9.07715672 L0.870725978,9.0320406 C0.599276632,8.29462533 0.461985906,7.51831685 0.461985906,6.72489536 C0.461985906,3.0165574 3.49856445,0 7.23099295,0" id="Fill-1" stroke-linecap="round" stroke-linejoin="round"></path>
                    <circle id="Oval-2" cx="4" cy="7" r="1"></circle>
                    <circle id="Oval-2-Copy" cx="7" cy="7" r="1"></circle>
                    <circle id="Oval-2-Copy-2" cx="10" cy="7" r="1"></circle>
                    <path d="M0.512786865,5.9335022 C0.378860049,6.94639209 0.506794648,7.98951343 0.896590663,9.06286621 C1.28638668,10.136219 1.82341467,10.8761685 2.50767465,11.2827148" id="Path-4" stroke-linecap="round"></path>
                </g>
            </g>
        </g>
    </g>
</svg>

<svg width="16" height="16" xmlns="http://www.w3.org/2000/svg"><g transform="translate(1 1)" stroke="#B4C2C8" fill="none" fill-rule="evenodd"><path d="M7.231 0C10.963 0 14 3.017 14 6.725a6.71 6.71 0 0 1-1.53 4.257l-.061.076-.028.03-.013.014-.013.014c-.33.38-.7.722-1.098 1.015l-.016.011-.015.012C9.623 13.431 7.584 14 4.616 14c-1.736 0-2.9-.08-4.616-.523.743-.925 1.077-1.865 1.077-3.01 0-.447-.06-.899-.177-1.343l-.013-.047-.016-.045a6.657 6.657 0 0 1-.409-2.307C.462 3.017 3.499 0 7.231 0" stroke-linecap="round" stroke-linejoin="round"/><circle cx="4" cy="7" r="1"/><circle cx="7" cy="7" r="1"/><circle cx="10" cy="7" r="1"/><path d="M.513 5.934C.379 6.946.507 7.99.897 9.063s.926 1.813 1.61 2.22" stroke-linecap="round"/></g></svg>
